core/sources/sprintA/baustern.cube
TITLE "BauStern Grade v1"
DOMAIN_MIN 0 0 0
DOMAIN_MAX 1 1 1
LUT_3D_SIZE 5
0.029018 0.066547 0.104077
0.224969 0.063378 0.097527
0.451875 0.059944 0.090429
0.681994 0.056705 0.083734
0.915029 0.053661 0.077442
0.029719 0.263848 0.082435
0.231133 0.262381 0.100010
0.461629 0.264077 0.077088
0.695450 0.259529 0.065656
0.931730 0.258229 0.060603
0.030361 0.498102 0.062605
0.236465 0.498094 0.061438
0.472044 0.498084 0.104891
0.707841 0.509784 0.085229
0.946492 0.506083 0.061819
0.030846 0.741255 0.047625
0.238160 0.742019 0.044610
0.487766 0.742862 0.072301
0.718340 0.743547 0.118639
0.956131 0.759702 0.102901
0.031145 0.961335 0.038398
0.240189 0.962261 0.036469
0.486098 0.963171 0.047069
0.735855 0.963907 0.094791
0.960497 0.964368 0.143177
0.052326 0.086857 0.310597
0.225551 0.062248 0.308244
0.452971 0.058877 0.302917
0.683540 0.055700 0.297898
0.916960 0.052719 0.293187
0.029785 0.263320 0.296925
0.231890 0.262548 0.292767
0.462369 0.260469 0.288455
0.696698 0.259098 0.284384
0.933264 0.257831 0.280620
0.030413 0.498099 0.282110
0.235101 0.498091 0.278956
0.472518 0.498082 0.300132
0.708345 0.502593 0.281775
0.947111 0.498067 0.269946
0.030883 0.741546 0.271003
0.238417 0.742281 0.268784
0.478765 0.743034 0.270442
0.718759 0.743716 0.317383
0.956575 0.756498 0.302331
0.031169 0.961694 0.264254
0.240347 0.962565 0.262866
0.479838 0.963378 0.261571
0.731851 0.964048 0.294943
0.960692 0.964463 0.343609
0.078662 0.109993 0.544415
0.233633 0.072782 0.543932
0.454170 0.057709 0.541274
0.685228 0.054603 0.538052
0.919065 0.051692 0.535033
0.069705 0.283663 0.535937
0.262043 0.289717 0.533223
0.463345 0.259963 0.532006
0.698053 0.258629 0.529406
0.934926 0.257400 0.527009
0.030469 0.498096 0.527958
0.235502 0.498088 0.525951
0.473886 0.499252 0.523797
0.709110 0.498071 0.521952
0.948274 0.498065 0.520256
0.030923 0.741858 0.520920
0.238693 0.742561 0.519528
0.477085 0.743267 0.518129
0.719011 0.743895 0.539498
0.956946 0.748879 0.525144
0.031195 0.962070 0.516715
0.240511 0.962880 0.515868
0.480093 0.963624 0.515091
0.722285 0.964180 0.518453
0.960871 0.964550 0.567374
0.105318 0.133605 0.781562
0.255695 0.096276 0.781382
0.455343 0.056567 0.780911
0.686877 0.053531 0.779411
0.921119 0.050690 0.778007
0.112016 0.317917 0.777478
0.290103 0.315439 0.776526
0.472014 0.272074 0.776332
0.699370 0.258174 0.775399
0.936537 0.256982 0.774292
0.068600 0.512039 0.774336
0.277779 0.519321 0.773328
0.507073 0.529937 0.772306
0.710052 0.498069 0.771968
0.949385 0.498062 0.771195
0.030961 0.742157 0.771497
0.238955 0.742827 0.770865
0.477535 0.743497 0.770233
0.720736 0.745812 0.769678
0.957423 0.744530 0.769258
0.031218 0.962421 0.769601
0.240662 0.963170 0.769228
0.480321 0.963844 0.768892
0.720376 0.964325 0.768653
0.961002 0.964618 0.791232
0.126074 0.152120 0.966544
0.274924 0.114670 0.966520
0.465815 0.071607 0.966473
0.688122 0.052722 0.966314
0.922667 0.049935 0.966104
0.144995 0.346982 0.965914
0.311853 0.335477 0.965812
0.489257 0.292000 0.965787
0.700358 0.257832 0.965715
0.937743 0.256669 0.965550
0.101663 0.533575 0.965487
0.311672 0.546151 0.965334
0.529370 0.551148 0.965207
0.715857 0.507142 0.965188
0.950206 0.498061 0.965092
0.057127 0.748668 0.965115
0.268743 0.752118 0.965019
0.511476 0.758935 0.964923
0.749221 0.772322 0.964839
0.957859 0.744641 0.964811
0.031235 0.962675 0.964860
0.240769 0.963377 0.964807
0.480480 0.963997 0.964760
0.720530 0.964424 0.964727
0.960622 0.964657 0.964710
