core/sources/sprintA/baustern.cube
TITLE "BauStern Grade v1"
DOMAIN_MIN 0 0 0
DOMAIN_MAX 1 1 1
LUT_3D_SIZE 9
0.029018 0.066547 0.104077
0.112814 0.065168 0.101226
0.224969 0.063378 0.097527
0.338001 0.061637 0.093927
0.451875 0.059944 0.090429
0.566551 0.058300 0.087031
0.681994 0.056705 0.083734
0.798166 0.055159 0.080537
0.915029 0.053661 0.077442
0.029339 0.151218 0.094168
0.114602 0.150153 0.101118
0.227346 0.149697 0.089564
0.341420 0.147597 0.084763
0.456293 0.146354 0.081535
0.571903 0.145149 0.078407
0.688212 0.143984 0.075380
0.805183 0.142857 0.072454
0.922779 0.141769 0.069628
0.029719 0.263848 0.082435
0.115472 0.263234 0.080051
0.231133 0.262381 0.100010
0.345663 0.266920 0.089496
0.461629 0.264077 0.077088
0.578154 0.260219 0.068334
0.695450 0.259529 0.065656
0.813321 0.258866 0.063079
0.931730 0.258229 0.060603
0.030059 0.379631 0.071914
0.116760 0.379356 0.069793
0.237777 0.378972 0.080149
0.350534 0.378620 0.101297
0.466419 0.385602 0.092171
0.584099 0.386326 0.079867
0.702112 0.383263 0.067857
0.820448 0.378082 0.056017
0.939479 0.377150 0.052791
0.030361 0.498102 0.062605
0.117895 0.498099 0.060747
0.236465 0.498094 0.061438
0.360201 0.498089 0.082934
0.472044 0.498084 0.104891
0.588864 0.506437 0.097283
0.707841 0.509784 0.085229
0.827054 0.509158 0.073440
0.946492 0.506083 0.061819
0.030623 0.618799 0.054509
0.118878 0.618999 0.052914
0.236596 0.619255 0.050881
0.362342 0.619524 0.065707
0.483391 0.619772 0.088034
0.594901 0.619988 0.110701
0.712245 0.629097 0.104670
0.832103 0.634387 0.092958
0.952101 0.635718 0.081471
0.030846 0.741255 0.047625
0.119710 0.741593 0.046293
0.238160 0.742019 0.044610
0.360566 0.742439 0.049551
0.487766 0.742862 0.072301
0.607059 0.743230 0.095342
0.718340 0.743547 0.118639
0.835804 0.752987 0.114212
0.956131 0.759702 0.102901
0.031030 0.865008 0.041954
0.120388 0.865415 0.040884
0.239421 0.865923 0.039551
0.358746 0.866393 0.038318
0.487945 0.866881 0.057654
0.612728 0.867310 0.081099
0.730634 0.867672 0.104762
0.841598 0.867974 0.128614
0.958786 0.877418 0.125799
0.031145 0.961335 0.038398
0.120809 0.961751 0.037532
0.240189 0.962261 0.036469
0.359795 0.962723 0.035506
0.486098 0.963171 0.047069
0.614088 0.963577 0.070833
0.735855 0.963907 0.094791
0.851340 0.964168 0.118914
0.960497 0.964368 0.143177
0.039287 0.075475 0.195010
0.112948 0.064652 0.193829
0.225227 0.062876 0.190540
0.338378 0.061148 0.187341
0.452362 0.059470 0.184232
0.567142 0.057840 0.181214
0.682682 0.056259 0.178286
0.798943 0.054726 0.175448
0.915888 0.053242 0.172700
0.029371 0.150829 0.187555
0.114914 0.150159 0.185149
0.227560 0.148508 0.182156
0.341768 0.147238 0.179199
0.456742 0.146006 0.176333
0.572446 0.144813 0.173557
0.688842 0.143658 0.170871
0.805893 0.142542 0.168275
0.923561 0.141466 0.165769
0.029748 0.263613 0.177133
0.115584 0.263005 0.175016
0.231256 0.262187 0.183918
0.345833 0.263592 0.173971
0.461870 0.260727 0.167085
0.578635 0.260019 0.164622
0.696005 0.259337 0.162249
0.813944 0.258682 0.159966
0.932413 0.258052 0.157773
0.030086 0.379525 0.167796
0.116859 0.379253 0.165915
0.233670 0.378898 0.165120
0.350733 0.378537 0.186470
0.466672 0.384077 0.177727
0.584301 0.382407 0.165800
0.702266 0.377631 0.154713
0.820943 0.377346 0.152743
0.940063 0.377074 0.150863
0.030384 0.498101 0.159546
0.117982 0.498097 0.157900
0.234896 0.498093 0.155792
0.358182 0.498088 0.168980
0.472274 0.498083 0.191138
0.589145 0.505632 0.183819
0.708092 0.507294 0.172049
0.827258 0.504980 0.160507
0.946643 0.500402 0.149100
0.030643 0.618876 0.152382
0.118953 0.619074 0.150972
0.236736 0.619325 0.149177
0.357711 0.619573 0.152498
0.482208 0.619825 0.174992
0.595129 0.620040 0.197832
0.712514 0.628648 0.192021
0.832352 0.632708 0.180521
0.952315 0.632680 0.169218
0.030863 0.741385 0.146304
0.119771 0.741717 0.145129
0.238275 0.742136 0.143647
0.357150 0.742530 0.142256
0.484653 0.742942 0.159848
0.606279 0.743309 0.183030
0.718536 0.743623 0.206462
0.836029 0.752727 0.202195
0.956336 0.758514 0.191034
0.031043 0.865165 0.141312
0.120437 0.865564 0.140373
0.239511 0.866062 0.139204
0.358870 0.866520 0.138126
0.483031 0.866966 0.145669
0.610464 0.867393 0.169225
0.730056 0.867750 0.192992
0.841732 0.868045 0.216938
0.958935 0.877251 0.214228
0.031156 0.961496 0.138196
0.120849 0.961902 0.137439
0.240260 0.962398 0.136512
0.359890 0.962846 0.135676
0.479957 0.963247 0.135365
0.610662 0.963650 0.159217
0.734374 0.963972 0.183255
0.851032 0.964223 0.207448
0.960587 0.964411 0.231770
0.052326 0.086857 0.310597
0.117740 0.070983 0.310280
0.225551 0.062248 0.308244
0.338849 0.060538 0.305542
0.452971 0.058877 0.302917
0.567881 0.057264 0.300369
0.683540 0.055700 0.297898
0.799913 0.054185 0.295504
0.916960 0.052719 0.293187
0.049357 0.161191 0.304342
0.129657 0.163110 0.302272
0.227860 0.148046 0.301165
0.342202 0.146789 0.298669
0.457303 0.145571 0.296251
0.573124 0.144392 0.293910
0.689628 0.143251 0.291645
0.806778 0.142150 0.289458
0.924536 0.141087 0.287347
0.029785 0.263320 0.296925
0.115723 0.262719 0.295140
0.231890 0.262548 0.292767
0.346136 0.261193 0.290607
0.462369 0.260469 0.288455
0.579235 0.259770 0.286381
0.696698 0.259098 0.284384
0.814720 0.258451 0.282463
0.933264 0.257831 0.280620
0.030119 0.379394 0.289054
0.116983 0.379125 0.287470
0.232989 0.378779 0.285432
0.350877 0.378433 0.294139
0.466923 0.380269 0.285942
0.584593 0.377820 0.279779
0.702865 0.377527 0.278049
0.821609 0.377247 0.276396
0.940789 0.376979 0.274819
0.030413 0.498099 0.282110
0.118090 0.498096 0.280727
0.235101 0.498091 0.278956
0.352935 0.498086 0.277752
0.472518 0.498082 0.300132
0.589471 0.503933 0.293185
0.708345 0.502593 0.281775
0.827446 0.498070 0.271255
0.947111 0.498067 0.269946
0.030668 0.618971 0.276093
0.119045 0.619166 0.274910
0.236910 0.619413 0.273407
0.355225 0.619647 0.271980
0.479593 0.619888 0.284865
0.595386 0.620105 0.307910
0.712838 0.627768 0.302373
0.832632 0.629731 0.291133
0.952536 0.627577 0.280053
0.030883 0.741546 0.271003
0.119847 0.741871 0.270021
0.238417 0.742281 0.268784
0.357350 0.742665 0.267624
0.478765 0.743034 0.270442
0.604706 0.743406 0.293789
0.718759 0.743716 0.317383
0.836301 0.752234 0.313312
0.956575 0.756498 0.302331
0.031060 0.865359 0.266839
0.120498 0.865748 0.266059
0.239622 0.866231 0.265089
0.359023 0.866676 0.264196
0.478663 0.867083 0.263380
0.606462 0.867492 0.280514
0.728970 0.867844 0.304403
0.841882 0.868130 0.328462
0.959114 0.876943 0.325876
0.031169 0.961694 0.264254
0.120897 0.962086 0.263629
0.240347 0.962565 0.262866
0.360007 0.962996 0.262180
0.479838 0.963378 0.261571
0.604890 0.963733 0.270813
0.731851 0.964048 0.294943
0.850467 0.964288 0.319218
0.960692 0.964463 0.343609
0.065453 0.098364 0.427075
0.128859 0.082479 0.426864
0.225872 0.061626 0.426299
0.339315 0.059933 0.424084
0.453574 0.058290 0.421933
0.568611 0.056695 0.419846
0.684389 0.055149 0.417822
0.800871 0.053651 0.415863
0.918019 0.052202 0.413967
0.070092 0.177840 0.421571
0.143161 0.175166 0.420350
0.231999 0.153844 0.420029
0.342632 0.146345 0.418454
0.457857 0.145142 0.416474
0.573794 0.143976 0.414558
0.690405 0.142850 0.412705
0.807652 0.141762 0.410917
0.925499 0.140713 0.409192
0.048761 0.269964 0.416285
0.136338 0.272473 0.414645
0.248081 0.276949 0.412564
0.346519 0.260929 0.411856
0.462860 0.260214 0.410097
0.579827 0.259525 0.408402
0.697380 0.258862 0.406771
0.815485 0.258225 0.405204
0.934102 0.257614 0.403700
0.030151 0.379264 0.410587
0.117105 0.378999 0.409292
0.233264 0.378661 0.407626
0.351840 0.379215 0.405960
0.467261 0.378015 0.404489
0.585107 0.377713 0.403015
0.703454 0.377424 0.401605
0.822265 0.377149 0.400259
0.941502 0.376886 0.398976
0.030441 0.498097 0.404916
0.118196 0.498094 0.403787
0.235303 0.498089 0.402344
0.352937 0.498085 0.400964
0.472565 0.498080 0.409286
0.589723 0.500211 0.402746
0.708625 0.498073 0.397206
0.827992 0.498069 0.396081
0.947699 0.498066 0.395020
0.030692 0.619065 0.400012
0.119135 0.619256 0.399050
0.237081 0.619499 0.397828
0.355467 0.619729 0.396669
0.474256 0.619946 0.395574
0.595569 0.620168 0.418114
0.713133 0.626167 0.412849
0.832850 0.625049 0.401865
0.952694 0.620689 0.391831
0.030903 0.741704 0.395876
0.119922 0.742022 0.395081
0.238557 0.742423 0.394080
0.357545 0.742798 0.393142
0.476850 0.743147 0.392268
0.601830 0.743497 0.404651
0.718938 0.743807 0.428397
0.836557 0.751412 0.424513
0.956784 0.753551 0.413701
0.031076 0.865548 0.392508
0.120557 0.865927 0.391879
0.239730 0.866396 0.391099
0.359171 0.866827 0.390382
0.478841 0.867220 0.389730
0.600243 0.867581 0.391878
0.727201 0.867934 0.415881
0.841998 0.868212 0.440044
0.959280 0.876463 0.437573
0.031182 0.961885 0.390429
0.120943 0.962264 0.389929
0.240431 0.962726 0.389320
0.360118 0.963139 0.388774
0.479969 0.963504 0.388293
0.599945 0.963820 0.387875
0.728151 0.964118 0.406677
0.849592 0.964347 0.431026
0.960787 0.964509 0.455478
0.078662 0.109993 0.544415
0.141224 0.094079 0.544268
0.233633 0.072782 0.543932
0.339776 0.059335 0.542960
0.454170 0.057709 0.541274
0.569333 0.056132 0.539638
0.685228 0.054603 0.538052
0.801818 0.053123 0.536518
0.919065 0.051692 0.535033
0.090991 0.195968 0.539754
0.156733 0.187318 0.539221
0.242888 0.165967 0.539014
0.343057 0.145907 0.538547
0.458405 0.144717 0.536996
0.574455 0.143566 0.535496
0.691171 0.142453 0.534046
0.808515 0.141380 0.532647
0.926449 0.140345 0.531298
0.069705 0.283663 0.535937
0.157641 0.288924 0.534563
0.262043 0.289717 0.533223
0.351634 0.268180 0.533014
0.463345 0.259963 0.532006
0.580410 0.259283 0.530681
0.698053 0.258629 0.529406
0.816238 0.258001 0.528183
0.934926 0.257400 0.527009
0.048071 0.384196 0.531975
0.136603 0.385601 0.530895
0.254886 0.389196 0.529449
0.369367 0.394932 0.528041
0.467684 0.377905 0.527624
0.585612 0.377608 0.526474
0.704033 0.377323 0.525375
0.822908 0.377052 0.524327
0.942201 0.376794 0.523328
0.030469 0.498096 0.527958
0.118301 0.498092 0.527077
0.235502 0.498088 0.525951
0.353810 0.498144 0.524869
0.473886 0.499252 0.523797
0.590062 0.498075 0.522876
0.709110 0.498071 0.521952
0.828527 0.498068 0.521079
0.948274 0.498065 0.520256
0.030716 0.619158 0.524135
0.119224 0.619345 0.523386
0.237248 0.619583 0.522435
0.355704 0.619809 0.521535
0.474553 0.620021 0.520686
0.595439 0.620229 0.528440
0.713362 0.622520 0.523461
0.833092 0.620584 0.518440
0.953144 0.620746 0.517792
0.030923 0.741858 0.520920
0.119995 0.742169 0.520303
0.238693 0.742561 0.519528
0.357735 0.742927 0.518803
0.477085 0.743267 0.518129
0.596705 0.743582 0.517505
0.719011 0.743895 0.539498
0.836790 0.749882 0.535795
0.956946 0.748879 0.525144
0.031091 0.865732 0.518314
0.120614 0.866100 0.517829
0.239835 0.866556 0.517229
0.359314 0.866973 0.516680
0.479014 0.867352 0.516181
0.598898 0.867693 0.515732
0.724022 0.868016 0.527421
0.842055 0.868290 0.551680
0.959433 0.875666 0.549315
0.031195 0.962070 0.516715
0.120988 0.962436 0.516332
0.240511 0.962880 0.515868
0.360225 0.963276 0.515454
0.480093 0.963624 0.515091
0.600078 0.963923 0.514778
0.722285 0.964180 0.518453
0.848151 0.964402 0.542868
0.960871 0.964550 0.567374
0.091952 0.121741 0.662587
0.154101 0.105790 0.662488
0.244058 0.084480 0.662277
0.342505 0.063026 0.661975
0.454759 0.057135 0.660935
0.570047 0.055575 0.659741
0.686058 0.054064 0.658584
0.802754 0.052602 0.657464
0.920099 0.051188 0.656382
0.109899 0.213060 0.659009
0.170372 0.199571 0.658853
0.255285 0.178179 0.658719
0.350284 0.156661 0.658488
0.458946 0.144297 0.657813
0.575109 0.143160 0.656719
0.691928 0.142062 0.655662
0.809366 0.141002 0.654643
0.927385 0.139981 0.653661
0.090793 0.300089 0.656306
0.179088 0.307274 0.655273
0.276051 0.302541 0.654554
0.363122 0.280955 0.654429
0.463824 0.259715 0.654176
0.580985 0.259044 0.653211
0.698716 0.258400 0.652284
0.816980 0.257781 0.651394
0.935738 0.257189 0.650541
0.069212 0.395758 0.653642
0.158026 0.399171 0.652818
0.276717 0.406293 0.651701
0.383646 0.408282 0.650856
0.473761 0.386577 0.650733
0.586109 0.377504 0.650153
0.704602 0.377224 0.649355
0.823541 0.376958 0.648594
0.942888 0.376705 0.647871
0.047284 0.502029 0.651009
0.136656 0.503095 0.650342
0.255933 0.505260 0.649474
0.375795 0.509288 0.648610
0.492617 0.516139 0.647760
0.590481 0.498074 0.647543
0.709586 0.498070 0.646875
0.829050 0.498067 0.646244
0.948836 0.498063 0.645650
0.030739 0.619248 0.648455
0.119311 0.619432 0.647913
0.237412 0.619666 0.647224
0.355936 0.619887 0.646573
0.475992 0.620236 0.645951
0.597144 0.621753 0.645346
0.713667 0.620473 0.644844
0.833506 0.620644 0.644342
0.953581 0.620801 0.643877
0.030942 0.742009 0.646129
0.120066 0.742313 0.645684
0.238825 0.742696 0.645125
0.357920 0.743052 0.644603
0.477313 0.743384 0.644119
0.596968 0.743689 0.643672
0.718616 0.743979 0.650685
0.836968 0.746296 0.647161
0.957124 0.744454 0.642554
0.031107 0.865911 0.644252
0.120670 0.866269 0.643904
0.239936 0.866711 0.643474
0.359452 0.867114 0.643082
0.479180 0.867479 0.642727
0.599082 0.867806 0.642410
0.719122 0.868094 0.642129
0.841966 0.868364 0.663368
0.959569 0.874179 0.661099
0.031207 0.962249 0.643108
0.121032 0.962602 0.642835
0.240588 0.963029 0.642506
0.360326 0.963407 0.642214
0.480210 0.963737 0.641959
0.600202 0.964019 0.641741
0.720264 0.964252 0.641561
0.845487 0.964450 0.654740
0.960943 0.964587 0.679293
0.105318 0.133605 0.781562
0.167260 0.117615 0.781503
0.255695 0.096276 0.781382
0.351179 0.074821 0.781214
0.455343 0.056567 0.780911
0.570753 0.055025 0.780149
0.686877 0.053531 0.779411
0.803678 0.052087 0.778697
0.921119 0.050690 0.778007
0.123428 0.225889 0.779305
0.184073 0.211924 0.779216
0.268326 0.190486 0.779138
0.360691 0.168950 0.779011
0.461252 0.147312 0.778836
0.575754 0.142760 0.778222
0.692675 0.141675 0.777549
0.810206 0.140629 0.776900
0.928309 0.139622 0.776274
0.112016 0.317917 0.777478
0.200661 0.326499 0.776812
0.290103 0.315439 0.776526
0.375987 0.293805 0.776455
0.472014 0.272074 0.776332
0.581553 0.258809 0.775989
0.699370 0.258174 0.775399
0.817710 0.257565 0.774833
0.936537 0.256982 0.774292
0.090473 0.410538 0.775888
0.179578 0.415644 0.775349
0.298665 0.425294 0.774621
0.397950 0.421639 0.774222
0.485708 0.399866 0.774157
0.586869 0.377973 0.774035
0.705162 0.377127 0.773539
0.824162 0.376865 0.773057
0.943562 0.376616 0.772598
0.068600 0.512039 0.774336
0.158194 0.514584 0.773900
0.277779 0.519321 0.773328
0.397973 0.526855 0.772751
0.507073 0.529937 0.772306
0.597487 0.508114 0.772245
0.710052 0.498069 0.771968
0.829562 0.498066 0.771570
0.949385 0.498062 0.771195
0.046402 0.622503 0.772866
0.136485 0.623441 0.772512
0.256608 0.625078 0.772059
0.377176 0.627532 0.771624
0.498183 0.631843 0.771199
0.616933 0.639650 0.770778
0.714039 0.620536 0.770688
0.833909 0.620702 0.770373
0.954005 0.620855 0.770082
0.030961 0.742157 0.771497
0.120136 0.742454 0.771217
0.238955 0.742827 0.770865
0.358100 0.743175 0.770537
0.477535 0.743497 0.770233
0.598932 0.744033 0.769947
0.720736 0.745812 0.769678
0.837204 0.744310 0.769465
0.957423 0.744530 0.769258
0.031121 0.866085 0.770316
0.120724 0.866433 0.770098
0.240034 0.866861 0.769830
0.359585 0.867250 0.769585
0.479339 0.867602 0.769365
0.599259 0.867914 0.769168
0.719307 0.868189 0.768996
0.841217 0.868432 0.775103
0.959670 0.870641 0.772922
0.031218 0.962421 0.769601
0.121073 0.962761 0.769432
0.240662 0.963170 0.769228
0.360423 0.963531 0.769048
0.480321 0.963844 0.768892
0.600318 0.964108 0.768760
0.720376 0.964325 0.768653
0.840459 0.964492 0.768569
0.961002 0.964618 0.791232
0.118758 0.145581 0.901310
0.180605 0.129551 0.901284
0.268034 0.108175 0.901235
0.361496 0.086704 0.901169
0.461049 0.065129 0.901085
0.571451 0.054481 0.900857
0.687687 0.053005 0.900529
0.804592 0.051578 0.900211
0.922126 0.050199 0.899904
0.137021 0.238687 0.900318
0.197834 0.224375 0.900282
0.281714 0.202888 0.900250
0.372387 0.181323 0.900199
0.469917 0.159676 0.900131
0.576392 0.142364 0.900000
0.693413 0.141294 0.899701
0.811034 0.140262 0.899412
0.929219 0.139269 0.899134
0.133368 0.336599 0.899455
0.222347 0.346244 0.899160
0.304196 0.328412 0.899108
0.389434 0.306732 0.899079
0.482835 0.284976 0.899032
0.584485 0.263158 0.898967
0.700014 0.257951 0.898746
0.818429 0.257352 0.898495
0.937322 0.256778 0.898255
0.111849 0.427172 0.898788
0.201242 0.433653 0.898546
0.320703 0.445160 0.898221
0.412275 0.435041 0.898108
0.498902 0.413213 0.898082
0.595682 0.391297 0.898038
0.705712 0.377031 0.897922
0.824772 0.376774 0.897708
0.944223 0.376530 0.897506
0.090014 0.525401 0.898143
0.179840 0.529345 0.897947
0.299734 0.536274 0.897688
0.420236 0.546322 0.897428
0.521531 0.543688 0.897282
0.609751 0.521778 0.897260
0.711307 0.499732 0.897218
0.830062 0.498064 0.897052
0.949921 0.498061 0.896887
0.067868 0.631322 0.897538
0.158124 0.633385 0.897379
0.278476 0.636921 0.897175
0.399278 0.641931 0.896978
0.520530 0.649707 0.896783
0.631425 0.653759 0.896631
0.721920 0.631870 0.896611
0.834300 0.620759 0.896527
0.954416 0.620907 0.896399
0.045430 0.744889 0.896988
0.136091 0.745752 0.896862
0.256888 0.747119 0.896703
0.378020 0.748909 0.896554
0.499453 0.751512 0.896415
0.621171 0.755953 0.896283
0.741416 0.764544 0.896154
0.837486 0.744392 0.896131
0.957709 0.744603 0.896042
0.031136 0.866254 0.896502
0.120776 0.866591 0.896407
0.240129 0.867006 0.896290
0.359713 0.867381 0.896183
0.479492 0.867719 0.896088
0.599824 0.868055 0.896003
0.721752 0.868630 0.895928
0.843780 0.870522 0.895862
0.959800 0.868685 0.895815
0.031230 0.962588 0.896190
0.121114 0.962914 0.896117
0.240732 0.963306 0.896029
0.360515 0.963650 0.895952
0.480426 0.963945 0.895886
0.600426 0.964192 0.895830
0.720479 0.964391 0.895786
0.840547 0.964541 0.895752
0.961027 0.964645 0.903187
0.126074 0.152120 0.966544
0.187900 0.136069 0.966536
0.274924 0.114670 0.966520
0.367544 0.093186 0.966499
0.465815 0.071607 0.966473
0.571826 0.054189 0.966424
0.688122 0.052722 0.966314
0.805082 0.051304 0.966207
0.922667 0.049935 0.966104
0.144416 0.245630 0.966214
0.205318 0.231165 0.966202
0.289069 0.209652 0.966192
0.379065 0.188069 0.966175
0.475363 0.166412 0.966154
0.578019 0.144672 0.966127
0.693808 0.141089 0.966035
0.811479 0.140065 0.965939
0.929708 0.139079 0.965845
0.144995 0.346982 0.965914
0.229943 0.353668 0.965828
0.311853 0.335477 0.965812
0.396862 0.313772 0.965802
0.489257 0.292000 0.965787
0.589112 0.270173 0.965767
0.700358 0.257832 0.965715
0.818815 0.257237 0.965631
0.937743 0.256669 0.965550
0.123484 0.436716 0.965696
0.213029 0.443831 0.965615
0.332684 0.456152 0.965506
0.420050 0.442327 0.965480
0.506294 0.420474 0.965472
0.601514 0.398543 0.965458
0.706006 0.376980 0.965438
0.825098 0.376725 0.965367
0.944576 0.376484 0.965299
0.101663 0.533575 0.965487
0.191615 0.538206 0.965421
0.311672 0.546151 0.965334
0.432329 0.557263 0.965247
0.529370 0.551148 0.965207
0.616927 0.529203 0.965201
0.715857 0.507142 0.965188
0.830329 0.498064 0.965147
0.950206 0.498061 0.965092
0.079538 0.637578 0.965292
0.169892 0.640270 0.965238
0.290370 0.644807 0.965170
0.411296 0.651049 0.965103
0.532667 0.660272 0.965038
0.639273 0.661357 0.964994
0.728471 0.639402 0.964988
0.834508 0.620789 0.964972
0.954634 0.620935 0.964930
0.057127 0.748668 0.965115
0.147857 0.749988 0.965072
0.268743 0.752118 0.965019
0.389959 0.754926 0.964969
0.511476 0.758935 0.964923
0.633277 0.765358 0.964878
0.749221 0.772322 0.964839
0.841191 0.750518 0.964835
0.957859 0.744641 0.964811
0.034460 0.866701 0.964962
0.125524 0.867233 0.964930
0.246772 0.867982 0.964890
0.368254 0.868826 0.964854
0.489932 0.869863 0.964822
0.611770 0.871326 0.964793
0.733736 0.873899 0.964768
0.855824 0.880920 0.964745
0.959882 0.868716 0.964737
0.031235 0.962675 0.964860
0.121135 0.962995 0.964836
0.240769 0.963377 0.964807
0.360563 0.963711 0.964781
0.480480 0.963997 0.964760
0.600481 0.964235 0.964742
0.720530 0.964424 0.964727
0.840590 0.964565 0.964717
0.960622 0.964657 0.964710
