core/sources/sprintA/baustern.cube
TITLE "BauStern Grade v1"
DOMAIN_MIN 0 0 0
DOMAIN_MAX 1 1 1
LUT_3D_SIZE 33
0.029018 0.066547 0.104077
0.029658 0.066537 0.104055
0.057078 0.066081 0.103114
0.084917 0.065623 0.102167
0.112814 0.065168 0.101226
0.140768 0.064716 0.100292
0.168779 0.064267 0.099364
0.196846 0.063821 0.098442
0.224969 0.063378 0.097527
0.253146 0.062938 0.096617
0.281377 0.062501 0.095714
0.309663 0.062068 0.094818
0.338001 0.061637 0.093927
0.366392 0.061209 0.093043
0.394835 0.060785 0.092166
0.423329 0.060363 0.091294
0.451875 0.059944 0.090429
0.480470 0.059529 0.089570
0.509115 0.059116 0.088717
0.537809 0.058707 0.087871
0.566551 0.058300 0.087031
0.595342 0.057897 0.086197
0.624179 0.057497 0.085370
0.653064 0.057100 0.084549
0.681994 0.056705 0.083734
0.710970 0.056314 0.082925
0.739991 0.055926 0.082123
0.769057 0.055541 0.081327
0.798166 0.055159 0.080537
0.827318 0.054780 0.079754
0.856514 0.054404 0.078977
0.885751 0.054031 0.078206
0.915029 0.053661 0.077442
0.029028 0.069095 0.103764
0.029668 0.069084 0.103742
0.057098 0.068633 0.102803
0.084946 0.068178 0.101858
0.112853 0.067727 0.100920
0.140816 0.067279 0.099987
0.168836 0.066834 0.099061
0.196912 0.066391 0.098142
0.225043 0.065952 0.097228
0.253229 0.065516 0.096321
0.281469 0.065083 0.095420
0.309763 0.064653 0.094526
0.338109 0.064226 0.093637
0.366508 0.063802 0.092755
0.394959 0.063381 0.091880
0.423462 0.062963 0.091010
0.452015 0.062548 0.090147
0.480618 0.062136 0.089290
0.509270 0.061727 0.088440
0.537971 0.061321 0.087595
0.566721 0.060918 0.086757
0.595519 0.060518 0.085926
0.624363 0.060121 0.085100
0.653255 0.059727 0.084281
0.682192 0.059337 0.083469
0.711175 0.058949 0.082662
0.740202 0.058564 0.081862
0.769274 0.058182 0.081068
0.798389 0.057804 0.080280
0.827548 0.057428 0.079499
0.856749 0.057055 0.078724
0.885992 0.056686 0.077955
0.915276 0.056319 0.077193
0.029134 0.096231 0.100490
0.029777 0.096221 0.100468
0.057633 0.095789 0.102598
0.085261 0.096083 0.100200
0.113255 0.094984 0.097711
0.141315 0.094575 0.096801
0.169429 0.094169 0.095896
0.197598 0.093766 0.094999
0.225821 0.093366 0.094107
0.254097 0.092968 0.093222
0.282427 0.092574 0.092343
0.310808 0.092182 0.091470
0.339241 0.091793 0.090603
0.367725 0.091407 0.089743
0.396260 0.091024 0.088889
0.424845 0.090643 0.088042
0.453478 0.090266 0.087200
0.482161 0.089891 0.086365
0.510892 0.089519 0.085537
0.539670 0.089150 0.084714
0.568496 0.088783 0.083898
0.597367 0.088420 0.083088
0.626285 0.088059 0.082285
0.655248 0.087701 0.081488
0.684255 0.087346 0.080697
0.713307 0.086994 0.079912
0.742402 0.086645 0.079134
0.771540 0.086298 0.078361
0.800720 0.085954 0.077596
0.829942 0.085613 0.076836
0.859205 0.085275 0.076083
0.888508 0.084940 0.075336
0.917852 0.084608 0.074595
0.029238 0.123608 0.097291
0.029883 0.123599 0.097270
0.057845 0.123218 0.096988
0.086003 0.122815 0.101779
0.113676 0.123862 0.099589
0.141828 0.123339 0.096346
0.170014 0.121966 0.093199
0.198268 0.121373 0.091931
0.226580 0.121010 0.091061
0.254945 0.120650 0.090198
0.283361 0.120293 0.089341
0.311827 0.119938 0.088490
0.340345 0.119586 0.087645
0.368912 0.119236 0.086807
0.397528 0.118889 0.085975
0.426192 0.118545 0.085149
0.454905 0.118203 0.084330
0.483665 0.117864 0.083516
0.512471 0.117528 0.082710
0.541324 0.117194 0.081909
0.570223 0.116863 0.081115
0.599167 0.116534 0.080327
0.628155 0.116208 0.079545
0.657187 0.115885 0.078770
0.686262 0.115564 0.078000
0.715380 0.115246 0.077238
0.744540 0.114931 0.076481
0.773742 0.114618 0.075731
0.802984 0.114308 0.074987
0.832267 0.114000 0.074249
0.861590 0.113695 0.073518
0.890952 0.113393 0.072793
0.920353 0.113093 0.072074
0.029339 0.151218 0.094168
0.029986 0.151210 0.094148
0.057704 0.150874 0.093274
0.087305 0.150502 0.096236
0.114602 0.150153 0.101118
0.142320 0.151555 0.099185
0.170630 0.151740 0.095892
0.198971 0.150987 0.092699
0.227346 0.149697 0.089564
0.255771 0.148554 0.087250
0.284271 0.148233 0.086415
0.312821 0.147913 0.085586
0.341420 0.147597 0.084763
0.370067 0.147282 0.083946
0.398762 0.146970 0.083136
0.427504 0.146661 0.082332
0.456293 0.146354 0.081535
0.485128 0.146049 0.080743
0.514008 0.145747 0.079958
0.542934 0.145447 0.079179
0.571903 0.145149 0.078407
0.600916 0.144854 0.077641
0.629973 0.144562 0.076881
0.659071 0.144272 0.076127
0.688212 0.143984 0.075380
0.717394 0.143699 0.074639
0.746617 0.143416 0.073904
0.775881 0.143135 0.073176
0.805183 0.142857 0.072454
0.834525 0.142582 0.071738
0.863905 0.142308 0.071028
0.893323 0.142038 0.070325
0.922779 0.141769 0.069628
0.029437 0.179055 0.091121
0.030087 0.179047 0.091101
0.057897 0.178746 0.090249
0.086889 0.178430 0.090803
0.116508 0.178095 0.095657
0.143424 0.177791 0.100611
0.171183 0.179385 0.098958
0.199643 0.180090 0.095639
0.228134 0.179849 0.092418
0.256656 0.179014 0.089257
0.285210 0.177783 0.086138
0.313795 0.176272 0.083046
0.342467 0.175818 0.081956
0.371192 0.175537 0.081162
0.399964 0.175259 0.080373
0.428781 0.174983 0.079591
0.457644 0.174709 0.078815
0.486552 0.174437 0.078046
0.515503 0.174168 0.077283
0.544498 0.173900 0.076526
0.573536 0.173635 0.075775
0.602617 0.173373 0.075031
0.631739 0.173112 0.074293
0.660902 0.172854 0.073561
0.690106 0.172597 0.072835
0.719350 0.172343 0.072116
0.748634 0.172092 0.071403
0.777956 0.171842 0.070697
0.807316 0.171595 0.069997
0.836715 0.171350 0.069303
0.866150 0.171107 0.068615
0.895622 0.170866 0.067933
0.925129 0.170628 0.067258
0.029534 0.207110 0.088150
0.030185 0.207104 0.088131
0.058085 0.206837 0.087300
0.086402 0.206568 0.086464
0.116825 0.206267 0.090302
0.145731 0.205980 0.095240
0.172461 0.205716 0.100259
0.200254 0.207420 0.098896
0.228857 0.208525 0.095567
0.257490 0.208707 0.092330
0.286153 0.208271 0.089154
0.314846 0.207402 0.086020
0.343569 0.206218 0.082917
0.372322 0.204795 0.079837
0.401132 0.203749 0.077686
0.430023 0.203504 0.076926
0.458957 0.203262 0.076172
0.487935 0.203022 0.075424
0.516956 0.202784 0.074683
0.546018 0.202548 0.073948
0.575123 0.202314 0.073219
0.604268 0.202082 0.072496
0.633454 0.201852 0.071780
0.662679 0.201624 0.071070
0.691944 0.201398 0.070367
0.721247 0.201174 0.069669
0.750589 0.200952 0.068978
0.779968 0.200732 0.068294
0.809384 0.200514 0.067615
0.838836 0.200298 0.066943
0.868324 0.200084 0.066277
0.897847 0.199872 0.065617
0.927405 0.199662 0.064964
0.029627 0.235377 0.085255
0.030281 0.235371 0.085236
0.058267 0.235137 0.084426
0.086672 0.234901 0.083612
0.116322 0.234652 0.085029
0.146598 0.234390 0.089969
0.175061 0.234145 0.094980
0.201701 0.233917 0.100059
0.229520 0.235679 0.098994
0.258261 0.237105 0.095665
0.287029 0.237642 0.092421
0.315826 0.237556 0.089237
0.344651 0.237016 0.086095
0.373505 0.236134 0.082986
0.402387 0.234988 0.079901
0.431299 0.233635 0.076836
0.460239 0.232115 0.073786
0.489279 0.231796 0.072878
0.518366 0.231588 0.072159
0.547494 0.231382 0.071445
0.576662 0.231177 0.070739
0.605870 0.230975 0.070038
0.635117 0.230774 0.069343
0.664402 0.230575 0.068655
0.693725 0.230377 0.067974
0.723086 0.230182 0.067298
0.752483 0.229988 0.066629
0.781916 0.229797 0.065966
0.811385 0.229607 0.065309
0.840889 0.229419 0.064659
0.870427 0.229232 0.064015
0.900000 0.229048 0.063377
0.929605 0.228865 0.062746
0.029719 0.263848 0.082435
0.030374 0.263843 0.082417
0.058445 0.263640 0.081629
0.086935 0.263436 0.080837
0.115472 0.263234 0.080051
0.146622 0.263002 0.084780
0.176356 0.262782 0.089797
0.204529 0.262575 0.094874
0.231133 0.262381 0.100010
0.258971 0.264169 0.099247
0.287842 0.265858 0.095926
0.316739 0.266699 0.092683
0.345663 0.266920 0.089496
0.374614 0.266676 0.086352
0.403592 0.266074 0.083240
0.432597 0.265189 0.080154
0.461629 0.264077 0.077088
0.490689 0.262781 0.074039
0.519775 0.261333 0.071004
0.548924 0.260395 0.069019
0.578154 0.260219 0.068334
0.607422 0.260044 0.067655
0.636728 0.259871 0.066983
0.666071 0.259699 0.066316
0.695450 0.259529 0.065656
0.724865 0.259361 0.065003
0.754316 0.259195 0.064355
0.783801 0.259030 0.063714
0.813321 0.258866 0.063079
0.842874 0.258704 0.062451
0.872461 0.258544 0.061829
0.902079 0.258386 0.061213
0.931730 0.258229 0.060603
0.029808 0.292516 0.079691
0.030465 0.292512 0.079673
0.058619 0.292339 0.078907
0.087190 0.292166 0.078137
0.115808 0.291993 0.077373
0.146106 0.291807 0.079664
0.176818 0.291614 0.084695
0.206167 0.291431 0.089781
0.234145 0.291258 0.094920
0.260743 0.291095 0.100110
0.288594 0.292887 0.099653
0.317588 0.294798 0.096345
0.346608 0.295900 0.093108
0.375652 0.296393 0.089925
0.404722 0.296417 0.086782
0.433818 0.296072 0.083672
0.462939 0.295431 0.080588
0.492086 0.294549 0.077525
0.521259 0.293468 0.074479
0.550457 0.292220 0.071447
0.579680 0.290833 0.068428
0.608928 0.289325 0.065420
0.638287 0.289136 0.064697
0.667685 0.288990 0.064053
0.697118 0.288846 0.063415
0.726586 0.288704 0.062783
0.756088 0.288563 0.062157
0.785623 0.288423 0.061538
0.815191 0.288285 0.060925
0.844791 0.288148 0.060319
0.874423 0.288013 0.059718
0.904086 0.287879 0.059124
0.933780 0.287747 0.058536
0.029894 0.321374 0.077023
0.030553 0.321371 0.077006
0.058787 0.321227 0.076261
0.087438 0.321082 0.075512
0.116135 0.320938 0.074770
0.145220 0.320793 0.074616
0.176714 0.320629 0.079667
0.206998 0.320472 0.084769
0.236065 0.320324 0.089919
0.263908 0.320182 0.095117
0.290522 0.320048 0.100360
0.318378 0.321825 0.100209
0.347489 0.323927 0.096918
0.376624 0.325257 0.093692
0.405782 0.325993 0.090516
0.434965 0.326260 0.087380
0.464172 0.326152 0.084275
0.493403 0.325738 0.081195
0.522658 0.325072 0.078137
0.551937 0.324196 0.075096
0.581240 0.323141 0.072071
0.610566 0.321936 0.069058
0.639916 0.320600 0.066056
0.669289 0.319152 0.063064
0.698730 0.318321 0.061249
0.728248 0.318203 0.060639
0.757799 0.318086 0.060035
0.787381 0.317971 0.059438
0.816995 0.317856 0.058847
0.846640 0.317743 0.058262
0.876315 0.317631 0.057684
0.906021 0.317520 0.057111
0.935755 0.317411 0.056545
0.029978 0.350415 0.074431
0.030639 0.350412 0.074414
0.058951 0.350295 0.073690
0.087679 0.350178 0.072964
0.116452 0.350061 0.072244
0.145269 0.349946 0.071530
0.176203 0.349818 0.074708
0.207253 0.349689 0.079830
0.237209 0.349565 0.084998
0.266065 0.349447 0.090209
0.293816 0.349334 0.095462
0.320456 0.349227 0.100756
0.348310 0.350976 0.100914
0.377532 0.353244 0.097643
0.406776 0.354776 0.094431
0.436042 0.355728 0.091266
0.465331 0.356216 0.088139
0.494642 0.356326 0.085042
0.523976 0.356124 0.081970
0.553333 0.355661 0.078920
0.582712 0.354979 0.075886
0.612113 0.354110 0.072869
0.641536 0.353079 0.069864
0.670982 0.351910 0.066871
0.700449 0.350619 0.063887
0.729937 0.349223 0.060913
0.759448 0.347758 0.057989
0.789076 0.347664 0.057414
0.818734 0.347572 0.056844
0.848421 0.347481 0.056281
0.878137 0.347392 0.055725
0.907882 0.347303 0.055174
0.937654 0.347215 0.054630
0.030059 0.379631 0.071914
0.030723 0.379629 0.071898
0.059109 0.379537 0.071196
0.087913 0.379446 0.070491
0.116760 0.379356 0.069793
0.145649 0.379266 0.069101
0.175389 0.379173 0.069815
0.207080 0.379070 0.074961
0.237777 0.378972 0.080149
0.267476 0.378878 0.085379
0.296172 0.378788 0.090647
0.323859 0.378702 0.095954
0.350534 0.378620 0.101297
0.378380 0.380329 0.101767
0.407705 0.382743 0.098517
0.437051 0.384454 0.095322
0.466419 0.385602 0.092171
0.495807 0.386291 0.089056
0.525217 0.386602 0.085970
0.554647 0.386597 0.082908
0.584099 0.386326 0.079867
0.613571 0.385827 0.076844
0.643065 0.385134 0.073836
0.672578 0.384272 0.070841
0.702112 0.383263 0.067857
0.731667 0.382126 0.064884
0.761241 0.380875 0.061921
0.790835 0.379523 0.058965
0.820448 0.378082 0.056017
0.850134 0.377356 0.054376
0.879889 0.377287 0.053841
0.909671 0.377218 0.053313
0.939479 0.377150 0.052791
0.030139 0.409015 0.069473
0.030803 0.409013 0.069457
0.059263 0.408947 0.068777
0.088140 0.408880 0.068094
0.117058 0.408814 0.067418
0.146017 0.408748 0.066747
0.175016 0.408683 0.066083
0.206577 0.408610 0.070159
0.237905 0.408537 0.075371
0.268319 0.408467 0.080622
0.297814 0.408400 0.085909
0.326386 0.408335 0.091233
0.354031 0.408273 0.096591
0.380743 0.408214 0.101983
0.408574 0.409874 0.102764
0.437997 0.412418 0.099538
0.467439 0.414290 0.096363
0.496901 0.415614 0.093228
0.526383 0.416487 0.090127
0.555884 0.416984 0.087054
0.585404 0.417162 0.084005
0.614944 0.417070 0.080975
0.644504 0.416745 0.077964
0.674083 0.416219 0.074967
0.703680 0.415519 0.071983
0.733297 0.414664 0.069012
0.762932 0.413675 0.066050
0.792586 0.412565 0.063098
0.822258 0.411348 0.060155
0.851947 0.410037 0.057219
0.881655 0.408639 0.054290
0.911386 0.407260 0.051527
0.941228 0.407211 0.051027
0.030215 0.438559 0.067108
0.030882 0.438558 0.067093
0.059412 0.438515 0.066434
0.088359 0.438472 0.065773
0.117347 0.438428 0.065118
0.146373 0.438386 0.064470
0.175439 0.438343 0.063828
0.205816 0.438299 0.065423
0.237687 0.438250 0.070661
0.268716 0.438204 0.075935
0.298898 0.438159 0.081245
0.328228 0.438117 0.086588
0.356704 0.438075 0.091964
0.384320 0.438036 0.097372
0.411073 0.437998 0.102811
0.438882 0.439601 0.103905
0.468396 0.442261 0.100704
0.497928 0.444276 0.097550
0.527477 0.445761 0.094434
0.557045 0.446803 0.091349
0.586631 0.447470 0.088291
0.616236 0.447819 0.085256
0.645858 0.447895 0.082241
0.675498 0.447734 0.079242
0.705155 0.447368 0.076259
0.734831 0.446820 0.073288
0.764523 0.446114 0.070329
0.794233 0.445267 0.067381
0.823959 0.444294 0.064442
0.853702 0.443209 0.061512
0.883462 0.442023 0.058589
0.913238 0.440746 0.055674
0.943030 0.439387 0.052765
0.030289 0.468258 0.064819
0.030957 0.468257 0.064804
0.059557 0.468236 0.064167
0.088572 0.468214 0.063528
0.117626 0.468192 0.062895
0.146718 0.468171 0.062268
0.175847 0.468150 0.061648
0.205014 0.468129 0.061034
0.237190 0.468105 0.066017
0.268755 0.468082 0.071317
0.299534 0.468059 0.076651
0.329524 0.468038 0.082016
0.358719 0.468017 0.087413
0.387118 0.467997 0.092840
0.414716 0.467977 0.098296
0.441511 0.467959 0.103781
0.469291 0.469498 0.105188
0.498889 0.472261 0.102014
0.528504 0.474407 0.098882
0.558136 0.476038 0.095786
0.587784 0.477234 0.092720
0.617448 0.478059 0.089679
0.647130 0.478568 0.086660
0.676827 0.478801 0.083660
0.706541 0.478795 0.080676
0.736271 0.478579 0.077707
0.766017 0.478178 0.074751
0.795779 0.477613 0.071806
0.825557 0.476903 0.068872
0.855350 0.476062 0.065948
0.885158 0.475103 0.063032
0.914981 0.474040 0.060124
0.944819 0.472880 0.057223
0.030361 0.498102 0.062605
0.031031 0.498102 0.062591
0.059696 0.498101 0.061975
0.088777 0.498100 0.061358
0.117895 0.498099 0.060747
0.147050 0.498097 0.060142
0.176242 0.498096 0.059544
0.205469 0.498095 0.058951
0.236465 0.498094 0.061438
0.268502 0.498092 0.066766
0.299806 0.498091 0.072125
0.330373 0.498090 0.077515
0.360201 0.498089 0.082934
0.389285 0.498087 0.088382
0.417622 0.498086 0.093858
0.445209 0.498085 0.099362
0.472044 0.498084 0.104891
0.499790 0.499553 0.106611
0.529466 0.502410 0.103465
0.559158 0.504673 0.100357
0.588864 0.506437 0.097283
0.618586 0.507775 0.094236
0.648323 0.508747 0.091214
0.678074 0.509403 0.088212
0.707841 0.509784 0.085229
0.737622 0.509923 0.082262
0.767419 0.509850 0.079309
0.797229 0.509588 0.076368
0.827054 0.509158 0.073440
0.856893 0.508579 0.070521
0.886746 0.507865 0.067612
0.916612 0.507029 0.064712
0.946492 0.506083 0.061819
0.030430 0.528086 0.060468
0.031101 0.528087 0.060454
0.059831 0.528104 0.059860
0.088975 0.528122 0.059264
0.118155 0.528140 0.058675
0.147371 0.528157 0.058092
0.176622 0.528174 0.057515
0.205907 0.528191 0.056945
0.235547 0.528209 0.056924
0.268004 0.528228 0.062280
0.299774 0.528247 0.067666
0.330854 0.528265 0.073081
0.361240 0.528283 0.078525
0.390930 0.528300 0.083996
0.419919 0.528316 0.089494
0.448207 0.528332 0.095018
0.475788 0.528347 0.100566
0.502662 0.528362 0.106139
0.530367 0.529754 0.108174
0.560115 0.532696 0.105055
0.589876 0.535067 0.101973
0.619651 0.536952 0.098921
0.649440 0.538420 0.095896
0.679242 0.539528 0.092893
0.709058 0.540322 0.089911
0.738887 0.540840 0.086946
0.768730 0.541116 0.083996
0.798585 0.541178 0.081061
0.828454 0.541048 0.078137
0.858335 0.540747 0.075226
0.888229 0.540293 0.072324
0.918135 0.539700 0.069431
0.948054 0.538982 0.066547
0.030497 0.558202 0.058406
0.031170 0.558202 0.058392
0.059961 0.558238 0.057820
0.089166 0.558273 0.057246
0.118406 0.558308 0.056679
0.147680 0.558343 0.056118
0.176988 0.558377 0.055563
0.206328 0.558411 0.055014
0.235701 0.558445 0.054472
0.267301 0.558482 0.057860
0.299487 0.558520 0.063274
0.331024 0.558557 0.068716
0.361909 0.558592 0.074185
0.392137 0.558626 0.079681
0.421708 0.558659 0.085202
0.450617 0.558691 0.090747
0.478862 0.558722 0.096317
0.506442 0.558752 0.101909
0.533352 0.558780 0.107524
0.561009 0.560091 0.109873
0.590822 0.563108 0.106783
0.620648 0.565577 0.103727
0.650485 0.567573 0.100700
0.680334 0.569161 0.097697
0.710196 0.570395 0.094716
0.740069 0.571316 0.091753
0.769954 0.571964 0.088808
0.799851 0.572369 0.085877
0.829760 0.572557 0.082960
0.859680 0.572552 0.080055
0.889611 0.572374 0.077161
0.919554 0.572039 0.074277
0.949507 0.571562 0.071403
0.030561 0.588442 0.056420
0.031235 0.588443 0.056407
0.060086 0.588494 0.055856
0.089350 0.588546 0.055304
0.118647 0.588597 0.054758
0.147977 0.588648 0.054219
0.177339 0.588698 0.053686
0.206733 0.588747 0.053159
0.236158 0.588796 0.052639
0.266420 0.588846 0.053505
0.298982 0.588902 0.058947
0.330930 0.588956 0.064417
0.362261 0.589008 0.069913
0.392974 0.589058 0.075434
0.423064 0.589107 0.080979
0.452530 0.589154 0.086548
0.481369 0.589200 0.092140
0.509579 0.589243 0.097754
0.537158 0.589286 0.103389
0.564103 0.589327 0.109045
0.591706 0.590551 0.111708
0.621578 0.593637 0.108648
0.651460 0.596193 0.105619
0.681353 0.598291 0.102617
0.711257 0.599990 0.099637
0.741171 0.601339 0.096678
0.771095 0.602381 0.093738
0.801030 0.603149 0.090813
0.830975 0.603674 0.087902
0.860931 0.603982 0.085005
0.890896 0.604095 0.082119
0.920870 0.604033 0.079244
0.950855 0.603812 0.076379
0.030623 0.618799 0.054509
0.031299 0.618800 0.054497
0.060206 0.618867 0.053967
0.089526 0.618933 0.053437
0.118878 0.618999 0.052914
0.148262 0.619064 0.052396
0.177677 0.619129 0.051885
0.207122 0.619192 0.051380
0.236596 0.619255 0.050881
0.266100 0.619316 0.050389
0.298287 0.619386 0.054687
0.330607 0.619456 0.060185
0.362342 0.619524 0.065707
0.393491 0.619589 0.071255
0.424050 0.619652 0.076825
0.454017 0.619713 0.082419
0.483391 0.619772 0.088034
0.512168 0.619829 0.093670
0.540347 0.619884 0.099328
0.567925 0.619937 0.105005
0.594901 0.619988 0.110701
0.622445 0.621122 0.113678
0.652369 0.624270 0.110648
0.682303 0.626906 0.107646
0.712245 0.629097 0.104670
0.742196 0.630897 0.101715
0.772156 0.632354 0.098780
0.802125 0.633506 0.095861
0.832103 0.634387 0.092958
0.862090 0.635025 0.090069
0.892085 0.635446 0.087192
0.922089 0.635671 0.084326
0.952101 0.635718 0.081471
0.030683 0.649266 0.052675
0.031359 0.649268 0.052663
0.060321 0.649348 0.052155
0.089695 0.649428 0.051647
0.119100 0.649507 0.051145
0.148536 0.649585 0.050649
0.178000 0.649662 0.050160
0.207494 0.649738 0.049677
0.237015 0.649814 0.049200
0.266565 0.649888 0.048729
0.297428 0.649966 0.050491
0.330085 0.650050 0.056018
0.362187 0.650132 0.061569
0.393731 0.650211 0.067143
0.424715 0.650287 0.072740
0.455136 0.650361 0.078358
0.484993 0.650432 0.083998
0.514283 0.650501 0.089658
0.543004 0.650568 0.095338
0.571154 0.650632 0.101037
0.598732 0.650694 0.106754
0.625736 0.650754 0.112489
0.653215 0.651792 0.115780
0.683185 0.654996 0.112780
0.713162 0.657704 0.109807
0.743147 0.659980 0.106858
0.773140 0.661874 0.103928
0.803140 0.663430 0.101017
0.833147 0.664684 0.098122
0.863162 0.665670 0.095242
0.893184 0.666414 0.092374
0.923213 0.666941 0.089519
0.953248 0.667271 0.086675
0.030740 0.679836 0.050916
0.031418 0.679838 0.050904
0.060432 0.679930 0.050418
0.089858 0.680023 0.049932
0.119313 0.680114 0.049452
0.148797 0.680203 0.048978
0.178309 0.680292 0.048510
0.207849 0.680379 0.048049
0.237416 0.680465 0.047594
0.267009 0.680551 0.047145
0.296628 0.680634 0.046703
0.329388 0.680731 0.051918
0.361824 0.680825 0.057497
0.393728 0.680916 0.063098
0.425098 0.681005 0.068721
0.455932 0.681090 0.074366
0.486228 0.681172 0.080030
0.515984 0.681252 0.085715
0.545197 0.681329 0.091418
0.573867 0.681403 0.097140
0.601991 0.681474 0.102879
0.629568 0.681543 0.108636
0.656596 0.681610 0.114409
0.684003 0.682550 0.118013
0.714013 0.685803 0.115045
0.744028 0.688577 0.112101
0.774049 0.690930 0.109178
0.804077 0.692909 0.106275
0.834110 0.694556 0.103389
0.864149 0.695906 0.100518
0.894194 0.696990 0.097661
0.924244 0.697833 0.094817
0.954300 0.698459 0.091984
0.030794 0.710502 0.049233
0.031473 0.710504 0.049222
0.060537 0.710607 0.048757
0.090013 0.710710 0.048293
0.119516 0.710811 0.047834
0.149047 0.710911 0.047382
0.178604 0.711010 0.046937
0.208188 0.711107 0.046497
0.237797 0.711203 0.046064
0.267431 0.711298 0.045637
0.297090 0.711391 0.045217
0.328536 0.711491 0.047883
0.361277 0.711597 0.053491
0.393510 0.711699 0.059120
0.425233 0.711797 0.064771
0.456444 0.711893 0.070441
0.487140 0.711985 0.076131
0.517321 0.712074 0.081841
0.546983 0.712159 0.087568
0.576126 0.712242 0.093313
0.604747 0.712322 0.099076
0.632845 0.712399 0.104854
0.660419 0.712474 0.110649
0.687468 0.712545 0.116460
0.714799 0.713383 0.120376
0.744841 0.716680 0.117439
0.774888 0.719513 0.114525
0.804939 0.721936 0.111630
0.834995 0.723994 0.108754
0.865055 0.725725 0.105894
0.895119 0.727163 0.103048
0.925188 0.728337 0.100215
0.955260 0.729273 0.097395
0.030846 0.741255 0.047625
0.031526 0.741258 0.047615
0.060638 0.741370 0.047172
0.090161 0.741482 0.046729
0.119710 0.741593 0.046293
0.149284 0.741702 0.045863
0.178885 0.741809 0.045439
0.208510 0.741915 0.045021
0.238160 0.742019 0.044610
0.267833 0.742122 0.044205
0.297529 0.742223 0.043806
0.327544 0.742324 0.043914
0.360566 0.742439 0.049551
0.393101 0.742550 0.055209
0.425147 0.742658 0.060887
0.456703 0.742762 0.066584
0.487766 0.742862 0.072301
0.518335 0.742959 0.078035
0.548408 0.743053 0.083787
0.577983 0.743143 0.089556
0.607059 0.743230 0.095342
0.635633 0.743313 0.101144
0.663706 0.743394 0.106961
0.691276 0.743472 0.112792
0.718340 0.743547 0.118639
0.745589 0.744279 0.122867
0.775658 0.747615 0.119962
0.805730 0.750501 0.117077
0.835804 0.752987 0.114212
0.865882 0.755116 0.111363
0.895962 0.756924 0.108529
0.926045 0.758444 0.105709
0.956131 0.759702 0.102901
0.030896 0.772090 0.046094
0.031577 0.772093 0.046084
0.060734 0.772213 0.045662
0.090301 0.772333 0.045241
0.119893 0.772452 0.044827
0.149510 0.772568 0.044419
0.179151 0.772683 0.044017
0.208816 0.772796 0.043621
0.238503 0.772907 0.043231
0.268213 0.773016 0.042848
0.297944 0.773123 0.042471
0.327697 0.773229 0.042101
0.359707 0.773345 0.045678
0.392519 0.773465 0.051365
0.424863 0.773580 0.057070
0.456736 0.773691 0.062795
0.488136 0.773798 0.068537
0.519061 0.773901 0.074298
0.549511 0.774001 0.080075
0.579482 0.774097 0.085868
0.608974 0.774189 0.091678
0.637986 0.774279 0.097503
0.666516 0.774364 0.103342
0.694563 0.774447 0.109196
0.722125 0.774527 0.115064
0.749202 0.774603 0.120945
0.776363 0.775227 0.125485
0.806451 0.778595 0.122612
0.836542 0.781529 0.119757
0.866633 0.784072 0.116921
0.896726 0.786266 0.114100
0.926821 0.788145 0.111293
0.956916 0.789739 0.108500
0.030943 0.802999 0.044638
0.031625 0.803002 0.044629
0.060826 0.803128 0.044229
0.090435 0.803255 0.043830
0.120068 0.803380 0.043437
0.149724 0.803502 0.043050
0.179404 0.803623 0.042670
0.209105 0.803741 0.042296
0.238828 0.803858 0.041929
0.268572 0.803973 0.041567
0.298336 0.804085 0.041212
0.328120 0.804196 0.040864
0.358714 0.804309 0.041872
0.391783 0.804434 0.047587
0.424400 0.804555 0.053321
0.456565 0.804672 0.059073
0.488275 0.804784 0.064842
0.519529 0.804892 0.070628
0.550324 0.804997 0.076431
0.580660 0.805097 0.082249
0.610536 0.805194 0.088083
0.639949 0.805287 0.093931
0.668898 0.805377 0.099794
0.697383 0.805463 0.105670
0.725403 0.805546 0.111560
0.752955 0.805625 0.117462
0.780040 0.805701 0.123377
0.807108 0.806213 0.128228
